svgs/sharp-light/house-medical.svg

<svg xmlns="http://www.w3.org/2000/svg" viewBox="0 0 576 512"><!--! Font Awesome Pro 6.4.2 by @fontawesome - https://fontawesome.com License - https://fontawesome.com/license (Commercial License) Copyright 2023 Fonticons, Inc. --><path d="M298.6 12L288 2.7 277.4 12 5.4 252l21.2 24L64 243V496v16H80 496h16V496 243l37.4 33 21.2-24L298.6 12zM96 480V214.7L288 45.3 480 214.7V480H96zM256 176H240v16 48H192 176v16 64 16h16 48v48 16h16 64 16V384 336h48 16V320 256 240H384 336V192 176H320 256zm16 80V208h32v48 16h16 48v32H320 304v16 48H272V320 304H256 208V272h48 16V256z"/></svg>

<svg xmlns="http://www.w3.org/2000/svg" viewBox="0 0 576 512"><!--! Font Awesome Pro 6.6.0 by @fontawesome - https://fontawesome.com License - https://fontawesome.com/license (Commercial License) Copyright 2024 Fonticons, Inc. --><path d="M298.6 12L288 2.7 277.4 12 5.4 252l21.2 24L64 243l0 253 0 16 16 0 416 0 16 0 0-16 0-253 37.4 33 21.2-24L298.6 12zM96 480l0-265.3L288 45.3 480 214.7 480 480 96 480zM256 176l-16 0 0 16 0 48-48 0-16 0 0 16 0 64 0 16 16 0 48 0 0 48 0 16 16 0 64 0 16 0 0-16 0-48 48 0 16 0 0-16 0-64 0-16-16 0-48 0 0-48 0-16-16 0-64 0zm16 80l0-48 32 0 0 48 0 16 16 0 48 0 0 32-48 0-16 0 0 16 0 48-32 0 0-48 0-16-16 0-48 0 0-32 48 0 16 0 0-16z"/></svg>
